!!!OTL: Shantou diao
!!!ARE: Asia, China,ÿAnhui, Chuxian
!! III, 592
!!!SCT: C1616
!!!YEM: Copyright 1995, estate of Helmut Schaffrath.
**kern
*ICvox
*Ivox
!! Mixed meters:  3/8; 3/4; 2/4
*M2/4
*k[b-e-]
*B-:
{8ff
=1
8een
8ff
8ff
=2
8een
8ff
8gg
=3
8.ff
16gg
8bb-
8ccc
=4
8ccc
4.fff}
=5
{4.ccc
8ccc
=6
8ccc
8bb-
8ccc
8gg
=7
8ff
4gg
8ff
=8
2ff}
=9
*M3/4
{8ff
8ff
2bb-
=10
*M2/4
8ccc
4ccc
8gg
=11
8bb-
4ff
8ff
=12
8ff
4gg
8ff
=13
2ff}
==
!!!AGN: Shange
!!!AMT: irregular
!!!AIN: vox
!!!EED: Helmut Schaffrath
!!!EEV: 1.0
*-
